!!!!SEGMENT: pl-gd--ee-1638--003-013_marenzio-luca--madrigali-a-quatro-voci-madonna-sua-merce-pur-una-sera.krn
!!!cenid: 15xx:987
!!!COM: Marenzio, Luca
!!!COM-rismID: pe30003955
!!!CDT: ~1553-1599/08/22
!!!CNT: Italian
!!!GTL: Madrigali a quatro voci
!!!OTL: Madonna sua merce pur una sera
!!!OMV: 013
!!!PDT: 1587
!!!AGN:
!!!SMS-siglum: PL-GD
!!!SMS-shelfmark: Ee 1638
!!!SMS-shelfwork: 003-013 G
!!!SMS-variant:
!!!NIFC-rismSourceID: 990039322
!!!NIFC-islandoraID: pl-gd:57883
!!!URL-pdf-islandora: https://repozytorium.nifc.pl/islandora/object/pl-gd%3A57883/datastream/PDF/view
!!!URL-scan: https://polish.musicsources.pl/pl/lokalizacje/galeria/klocki-introligatorskie/655 @EN{Scan on Polish Music Herritage in Open Access Website} @PL{Skany w portalu Dziedzictwo Muzyki Polskiej w otwartym dostępie}
!!!ONB-nifc: UWAGA: zbiór na stronach: Canto: s. 637-653, Alto: s. do 486-501, Tenore: s. do 334-349, Bassus: s. do 182-197. Uwaga: utwory podzielone wg tytułów w spisach treści dostępnych na końcu każdej księgi głosowej.
!!!AIN: 1 alto 1 bass 1 soprn 1 tenor
!!!key: A
**kern	**text	**kern	**text	**kern	**text	**kern	**text
*part4	*part4	*part3	*part3	*part2	*part2	*part1	*part1
*staff4	*staff4	*staff3	*staff3	*staff2	*staff2	*staff1	*staff1
*I"BASSO	*	*I"TENORE	*	*I"ALTO	*	*I"CANTO	*
*I'B	*	*I'T	*	*I'A	*	*I'S	*
*ICvox	*	*ICvox	*	*ICvox	*	*ICvox	*
*Ibass	*	*Itenor	*	*Ialto	*	*Isoprn	*
*clefF4	*	*clefC4	*	*clefC3	*	*clefC1	*
*k[]	*	*k[]	*	*k[]	*	*k[]	*
*A:	*	*A:	*	*A:	*	*A:	*
*M2/1	*	*M2/1	*	*M2/1	*	*M2/1	*
*met(C)	*	*met(C)	*	*met(C)	*	*met(C)	*
=1-	=1-	=1-	=1-	=1-	=1-	=1-	=1-
1A	MA-	1c#X	Ma-	1e	MA-	1a	MA-
1D	-don-	1d	-don-	1f	-don-	1a	-don-
=2-	=2-	=2-	=2-	=2-	=2-	=2-	=2-
1E	-na	1B	-na	1e	-na	1g#X	-na
4r	.	4r	.	4r	.	4r	.
2A\	ſua	2cny\	ſua	2e\	ſua	2a\	ſua
4G\	mer-	4d\	mer-	4g\	mer-	4b\	mer-
=3-	=3-	=3-	=3-	=3-	=3-	=3-	=3-
4.F\	-cè	4f\	-cè	4.a\	-cè	4.cc\	-cè
.	.	4c\	pur	.	.	.	.
8E\	pur	.	.	8g\	pur	8cc\	pur
4F\	v-	4A/	u-	4f\	u-	4cc\	u-
4D/	-na	4B\	-na	4f\	-na	4dd\	-na
2C/	ſe-	2c\	ſe-	2e\	ſe-	2gny/	ſe-
4C/	-ra	4c\	-ra	2e\	-ra	2g/	-ta
4C/	Gioio-	4c\	Gio-	.	.	.	.
=4-	=4-	=4-	=4-	=4-	=4-	=4-	=4-
8G\	-ſa	8B\	-io-	4r	.	4r	.
8F\	& bel-	8A\	-ſa	.	.	.	.
8E\	-la	8G/	& bella	4g\	Gio-	4cc\	Gio-
8F\	aſ-	8A/	aſ-	.	.	.	.
4G\	-ſai	4B\	-ſa	8g\	-io-	8b\	-io-
.	.	.	.	8f\	-ſa &	8a\	-ſa &
!LO:SIC:v:t=custos G	!	!LO:SIC:v:t=custos B	!	!	!	!	!
*	*ij	*	*ij	*	*	*	*
4C/	Gioio-	4c\	Gio-	8e\	bella	8g\	bella
!	!	!	!	!LO:SIC:v:t=custos g	!	!LO:SIC:v:t=custos b	!
.	.	.	.	8f\	aſ-	8a\	aſ-
!LO:LB:g=original	!	!LO:LB:g=original	!	!LO:LB:g=original	!	!LO:LB:g=original	!
8G\	-ſa	8B\	-io-	4g\	-ſai	4b\	-ſai
8F\	& bal-	8A\	-ſa	.	.	.	.
*	*	*	*	*	*ij	*	*ij
8E\	-la	8G/	& bella	4g\	Gio-	4cc\	Gio-
8F\	aſ-	8A\	aſ-	.	.	.	.
4G\	-ſai	4B\	-ſa	8g\	-io-	8b\	-io-
.	.	.	.	8f\	-ſa &	8a\	-ſa &
*	*Xij	*	*Xij	*	*	*	*
4C/	m'appa-	4c\	m'ap-	8e\	bella	8g\	bella
.	.	.	.	8f\	aſ-	8a\	aſ-
=5-	=5-	=5-	=5-	=5-	=5-	=5-	=5-
2.G\	-ru-	4.d\	-pa-	4g\	-ſai	2b\	-ſai
*	*	*	*	*	*Xij	*	*
.	.	.	.	4d\	m'ap-	.	.
.	.	8c\	-re	.	.	.	.
*	*	*	*	*	*	*	*Xij
.	.	4B\	ue	4e\	-pa-	4g/	m'ap-
4D/	-re in	4A/	in	4f#X\	-rue in	2dd\	-pa-
1E	ſon-	1e	ſon-	4g#X\	ſon-	.	.
.	.	.	.	2a\	.	4cc\	-rue
.	.	.	.	.	.	2b\	in
.	.	.	.	4g#X\	.	.	.
=6-	=6-	=6-	=6-	=6-	=6-	=6-	=6-
2AA/	-no	2e\	-no	1a	-no	4.cc\	ſon-
.	.	.	.	.	.	8dd\	.
4A\	Et	4c\	Et	.	.	2ee\	-no
8G\	ral-	8B\	ral-	.	.	.	.
8F\	-le-	8A\	-le-	.	.	.	.
4G\	-grò'l	4B\	-grò'l	2r	.	2r	.
4E\	mio	4c#X\	mio	.	.	.	.
2D/	cor	2d\	cor	4fny\	Et	4a\	Et
.	.	.	.	8e\	ral-	8g/	ral-
.	.	.	.	8d\	-le-	8f/	-le-
=7-	=7-	=7-	=7-	=7-	=7-	=7-	=7-
2r	.	2r	.	4e\	-grò'l	4g/	-grò'l
.	.	.	.	4f#X\	mio	4a\	mio
!	!	!	!	!LO:SIC:v:t=custos e	!	!	!
4G\	Et	4B\	Et	2gny\	cor	2d/	cor
8F\	rel-	8A/	ral-	.	.	.	.
8E\	-le-	8G/	-le-	.	.	.	.
!	!	!	!	!LO:LB:g=original	!	!	!
4F\	-grò'l	4A/	-grò'l	2r	.	2r	.
4D/	mio	4B\	mio	.	.	.	.
!LO:SIC:v:t=custos F	!	!LO:SIC:v:t=custos c	!	!	!	!	!
2C/	cor	2cny\	cor	4e\	Et	4g/	Et
.	.	.	.	8d\	ral-	8f/	ral-
!	!	!	!	!	!	!LO:SIC:v:t=custos f	!
.	.	.	.	8c\	-le-	8e/	-le-
!LO:LB:g=original	!	!LO:LB:g=original	!	!	!	!LO:LB:g=original	!
=8-	=8-	=8-	=8-	=8-	=8-	=8-	=8-
2r	.	2r	.	4d\	-grò'l	4f/	-grò'l
.	.	.	.	4e\	mio	4g/	mio
4r	.	4r	.	4.fny\	cor	4.a\	cor
4F\	ſi	4c\	ſi	.	.	.	.
.	.	.	.	8g\	ſi	8b\	ſi
4F\	com'	4A/	com'	4a\	com'	4cc\	com'
4A\	il	4c\	il	4e\	il	4cc\	il
2G\	ſo-	2B\	ſo-	2g\	ſo-	2dd\	ſo-
=9-	=9-	=9-	=9-	=9-	=9-	=9-	=9-
4.C/	-le	4.c\	-le	4.g\	-le	4.ee\	-le
8D/	Suol	8A/	Sol	8f\	Suol	8dd\	Sol
4F\	do-	4A/	do-	4a\	do-	4cc\	do-
4G\	-po	4d\	-po	4g\	-po	4b\	-po
2D/	piog-	2d\	piog-	2f#X\	piog-	2a\	piog-
2D/	-gia	2d\	-gia	2f#\	-gia	4a\	-gia
.	.	.	.	.	.	4.b\	di-
=10-	=10-	=10-	=10-	=10-	=10-	=10-	=10-
4.G\	di-	4.B\	di-	4g\	di-	.	.
.	.	.	.	.	.	8cc\	-ſgom-
.	.	.	.	4d\	-ſgom-	2dd\	-brar
8A\	-ſgõ-	8c\	-ſgom-	.	.	.	.
2B#X\	-brar	2d\	-brar	8G/	-brar	.	.
.	.	.	.	8A/	.	.	.
.	.	.	.	8B/	.	4.b\	di-
!	!	!	!	!LO:SIC:v:t=custos d	!	!	!
.	.	.	.	8c/	.	.	.
!	!	!	!	!LO:LB:g=original	!	!	!
4.G\	di-	4.B\	di-	2d\	.	.	.
.	.	.	.	.	.	8cc\	-ſgom-
.	.	.	.	.	.	2dd\	-brar
8A\	-ſgõ-	8c\	-ſgom-	.	.	.	.
4.B#\	-brar	4d\	-brar	4.G/	di-	.	.
.	.	4e\	la-	.	.	4g/	la
8c\	la	.	.	8A/	-ſgom-	.	.
=11-	=11-	=11-	=11-	=11-	=11-	=11-	=11-
1G	ter-	4d\	-ter-	4B/	-brar	1g	ter-
.	.	2c\	.	4e\	la	.	.
.	.	.	.	2d\	ter-	.	.
.	.	4B\	.	.	.	.	.
!	!	!LO:SIC:v:t=custos c	!	!	!	!LO:SIC:v:t=custos a	!
1C	-ra	1c	-ra	1e	-ra	1g	-ra
!	!	!LO:LB:g=original	!	!	!	!LO:LB:g=original	!
=12-	=12-	=12-	=12-	=12-	=12-	=12-	=12-
2F\	Di-	2c\	Di-	2fny\	Di-	2a\	Di-
1G	-cen-	1B	-cen-	1d	-cen-	1g	-cen-
!LO:SIC:v:t=custos E	!	!	!	!	!	!	!
2D/	-do à	2A/	-do à	2d\	-do à	2f/	-do à
!LO:LB:g=original	!	!	!	!	!	!	!
=13-	=13-	=13-	=13-	=13-	=13-	=13-	=13-
1E	me	1G#X	me	1B	me	1e	me
8F\	vien	8A/	vien	2r	.	2r	.
8G\	.	8B\	.	.	.	.	.
8A\	.	8c\	.	.	.	.	.
8Bny\	.	8d\	.	.	.	.	.
2c\	.	2e\	.	8A/	vien	8c/	vien
.	.	.	.	8B/	.	8d/	.
.	.	.	.	8c/	.	8e/	.
.	.	.	.	8d\	.	8f/	.
=14-	=14-	=14-	=14-	=14-	=14-	=14-	=14-
8C/	vien	8E/	vien	2e\	.	2g/	.
8D/	.	8F/	.	.	.	.	.
8E\	.	8Gny/	.	.	.	.	.
8F\	.	8A/	.	.	.	.	.
2G\	.	4B\	.	8d\	vien	8g\	vien
.	.	.	.	8c\	.	8a\	.
.	.	8G/	vien	8B/	.	8b\	.
.	.	8A/	.	8A/	.	8cc\	.
8GG/	vien	8B\	.	2G/	.	2dd\	.
8AA/	.	8c\	.	.	.	.	.
8BB/	.	8d\	.	.	.	.	.
8C/	.	8e\	.	.	.	.	.
2D/	.	2f\	co-	8F/	vien	8d/	vien
.	.	.	.	8G/	.	8e/	.
.	.	.	.	8A/	.	8f/	.
!	!	!	!	!LO:SIC:v:t=custos c	!	!	!
.	.	.	.	8B/	.	8g/	.
!	!	!	!	!LO:LB:g=original	!	!	!
=15-	=15-	=15-	=15-	=15-	=15-	=15-	=15-
1AA	co-	1e	-hli	2c/	.	2a\	.
.	.	.	.	2.c/	co-	2.a\	co-
2E\	-gli a	2e\	a	.	.	.	.
.	.	.	.	4B/	-gli a	4g#X/	-gli a
4.E\	le	4.B\	le	4.e\	le	4.g#/	le
!	!	!LO:SIC:v:t=custos d	!	!	!	!LO:SIC:v:t=custos b	!
8A\	mie	8c\	mie	8f#X\	mie	8a\	mie
!	!	!LO:LB:g=original	!	!	!	!LO:LB:g=original	!
=16-	=16-	=16-	=16-	=16-	=16-	=16-	=16-
2G\	piag-	2d\	piag-	2g\	piag-	2b\	piag-
2G\	-ge	2d\	-ge	2g\	-ge	2b\	-ge
1r	.	4c\	Qual-	1g	Qual-	4ee\	Qual
.	.	8B\	-che	.	.	8dd\	che
.	.	8A\	fio-	.	.	8cc\	fio-
.	.	4B\	-ret-	.	.	4dd\	-ret-
.	.	4G/	-to	.	.	4b\	-to
=17-	=17-	=17-	=17-	=17-	=17-	=17-	=17-
*	*	*	*ij	*	*	*	*ij
0r	.	4A/	Qual-	2c/	-che	4cc\	Qual-
.	.	8G/	-che	.	.	8b\	-che
.	.	8F/	fio-	.	.	8a\	fio-
.	.	4G/	-ret-	2g\	fio-	4b\	-ret-
.	.	4E/	-to	.	.	4gny/	-to
*	*	*	*Xij	*	*	*	*Xij
.	.	4c\	Qual-	2.g\	-ret-	4ee\	Quel-
.	.	8B\	-che	.	.	8dd\	-che
.	.	8A/	fio-	.	.	8cc\	fio-
.	.	4B\	-ret-	.	.	4dd\	-ret-
.	.	4G/	-to &	4g\	-to &	4b\	-to &
=18-	=18-	=18-	=18-	=18-	=18-	=18-	=18-
!LO:SIC:v:t=custos F	!	!	!	!	!	!	!
0r	.	4.c\	la-	4.g\	la-	4.ee\	la-
.	.	8c\	-ſcia	8a\	-ſcia	8ee\	-ſcia
.	.	4c\	gl'an-	4e\	gl'an-	4ee\	gl'an-
.	.	4d\	-tri	4f#X\	-tri-	8dd\	.
!	!	!	!	!	!	!LO:SIC:v:t=custos b	!
.	.	.	.	.	.	8cc\	.
!	!	!LO:SIC:v:t=custos A	!	!	!	!LO:LB:g=original	!
.	.	1e	fo-	4g#X\	-fo-	4b\	.
.	.	.	.	2a\	.	4a\	-tri
.	.	.	.	.	.	2b\	fo-
.	.	.	.	4g#X\	.	.	.
!LO:LB:g=original	!	!LO:LB:g=original	!	!	!	!	!
=19-	=19-	=19-	=19-	=19-	=19-	=19-	=19-
2r	.	2A/	-ſchi	2a\	-ſchi	2cc\	-ſchi
1F	Di-	1c	Di-	1fny	Di-	1a	Di-
1G\	-ce-	1B\	-ce	1d\	-ce-	1g\	-cen-
=20-	=20-	=20-	=20-	=20-	=20-	=20-	=20-
!	!	!	!	!LO:SIC:v:t=custos B	!	!	!
2D/	-do à	2A/	do à	2d\	-do à	2f/	-do à
!	!	!	!	!LO:LB:g=original	!	!	!
1E	me	1G#X	me	1B	me	1e	me
=21-	=21-	=21-	=21-	=21-	=21-	=21-	=21-
8F\	vien	8A/	vien	2r	.	2r	.
8G\	.	8B\	.	.	.	.	.
8A\	.	8c\	.	.	.	.	.
8B\	.	8d\	.	.	.	.	.
2c\	.	2e\	.	8A/	vien	8c/	vien
.	.	.	.	8B/	.	8d/	.
.	.	.	.	8c\	.	8e/	.
.	.	.	.	8d\	.	8f/	.
8C/	vien	8E/	vien	2e\	.	2g/	.
8D\	.	8F/	.	.	.	.	.
8E\	.	8Gny/	.	.	.	.	.
8F\	.	8A/	.	.	.	.	.
2G\	.	4B\	.	8d\	vien	8g/	vien
.	.	.	.	8c\	.	8a\	.
.	.	8G/	vien	8B/	.	8b\	.
.	.	8A/	.	8A/	.	8cc\	.
=22-	=22-	=22-	=22-	=22-	=22-	=22-	=22-
8GG/	vien	8B\	.	2G/	.	2dd\	.
8AA/	.	8c\	.	.	.	.	.
8BB/	.	8d\	.	.	.	.	.
8C/	.	8e\	.	.	.	.	.
2D/	.	2f\	.	8F/	vien	8d/	vien
.	.	.	.	8G/	.	8e/	.
.	.	.	.	8A/	.	8f/	.
!	!	!	!	!	!	!LO:SIC:v:t=custos a	!
.	.	.	.	8B/	.	8g/	.
!	!	!	!	!	!	!LO:LB:g=original	!
1AA	co-	1e	co-	2c/	.	2a\	.
.	.	.	.	2.c/	co-	2.a\	co-
=23-	=23-	=23-	=23-	=23-	=23-	=23-	=23-
2E\	-gli a	2e\	-gli a	.	.	.	.
.	.	.	.	4B/	-gli a	4g#X/	-gli a
4.E\	le	4.B\	le	4.e\	le	4.g#/	le
!LO:SIC:v:t=custos G	!	!LO:SIC:v:t=custos d	!	!	!	!	!
8A\	mie	8c\	mie	8f#X\	mie	8a\	mie
!LO:LB:g=original	!	!LO:LB:g=original	!	!	!	!	!
2G\	piag-	2d\	piag-	2gny\	piag-	2b\	piag-
2G\	-ge	2d\	-ge	2g\	-ge	2b\	-ge
=24-	=24-	=24-	=24-	=24-	=24-	=24-	=24-
4c\	Qual-	1r	.	1g	Qual-	4ee\	Quel-
8B\	-che	.	.	.	.	8dd\	-che
8A\	fio-	.	.	.	.	8cc\	fio-
4B\	-ret-	.	.	.	.	4dd\	-ret-
4G\	-to	.	.	.	.	4b\	-to
!	!	!	!	!LO:SIC:v:t=custos e	!	!	!
4A\	Qual-	4c\	Qual-	1e	-chee	1r	.
8G\	-che	8B\	-che	.	.	.	.
8F\	fio-	8A/	fio-	.	.	.	.
4G\	-ret-	4B\	-ret-	.	.	.	.
4E\	-to	4G/	-to	.	.	.	.
!	!	!	!	!LO:LB:g=original	!	!	!
=25-	=25-	=25-	=25-	=25-	=25-	=25-	=25-
*	*	*	*ij	*	*	*	*
4c\	Qual-	4A/	Qual-	1e	fio-	1r	.
8B\	-che	8G/	-che	.	.	.	.
8A\	fio-	8F/	fio-	.	.	.	.
4B\	-ret-	4G/	-ret-	.	.	.	.
4G\	-to	4E/	-to	.	.	.	.
*	*	*	*	*	*	*	*ij
1r	.	4c\	Qual-	2e\	-ret-	4ee\	Qiel-
.	.	8B\	-che	.	.	8dd\	-che
.	.	8A\	fio-	.	.	8cc\	fio-
.	.	4B\	-ret-	2g\	-to &	4dd\	-ret-
.	.	4G/	-to	.	.	4b\	-to
*	*	*	*Xij	*	*	*	*Xij
=26-	=26-	=26-	=26-	=26-	=26-	=26-	=26-
1r	.	4.c\	& la-	4.g\	la-	4.ee\	& la-
.	.	8c\	-ſcia	8a\	-ſcia	8ee\	-ſcia
.	.	4c\	gl'an-	4e\	gl'an-	4ee\	gl'an-
.	.	4d\	-tri	4f#X\	-tri	8dd\	.
!	!	!	!	!	!	!LO:SIC:v:t=custos b	!
.	.	.	.	.	.	8cc\	.
!	!	!	!	!	!	!LO:LB:g=original	!
2r	.	1e	fo-	4g#X\	fo-	4b\	.
.	.	.	.	2a\	.	4a\	-tri
4r	.	.	.	.	.	2b\	fo-
!LO:SIC:v:t=custos A	!	!	!	!	!	!	!
4E\	&	.	.	4g#X\	.	.	.
!LO:LB:g=original	!	!	!	!	!	!	!
=27-	=27-	=27-	=27-	=27-	=27-	=27-	=27-
!	!	!LO:SIC:v:t=custos e	!	!	!	!	!
4.A\	la-	2e\	-ſchi	2.a\	-ſchi	2.cc\	-ſchi
8A\	-ſcia	.	.	.	.	.	.
!	!	!LO:LB:g=original	!	!	!	!	!
4A\	gl' an-	2r	.	.	.	.	.
4B\	-tri	.	.	8gny\	.	8b\	.
.	.	.	.	8fny\	.	8a\	.
2c\	fo-	2r	.	2e\	.	1gny	.
4c\	-ſchi	4r	.	4r	.	.	.
4C/	&	4e\	&	4g\	&	.	.
=28-	=28-	=28-	=28-	=28-	=28-	=28-	=28-
4.E\	la-	4.e\	la-	4.g\	la-	1r	.
8E\	-ſcia	8e\	-ſcia	8g\	-ſcia	.	.
4E\	gl'an-	4e\	gl'an-	4g\	gl'an-	.	.
4F\	-tri	8d\	.	8f\	.	.	.
.	.	8c\	.	8e\	.	.	.
2G\	fol-	4B\	.	4d\	.	2r	.
.	.	4c\	-tri	4c/	-tri	.	.
!	!	!	!	!LO:SIC:v:t=custos G	!	!	!
4G\	-ſchi	2B\	fo-	2d\	fo-	4r	.
4GG/	&	.	.	.	.	4b\	&
!	!	!	!	!LO:LB:g=original	!	!	!
=29-	=29-	=29-	=29-	=29-	=29-	=29-	=29-
4.C/	la-	2c\	-ſchi	4G/	-ſchi	4.ee\	la-
.	.	.	.	2g\	gl'an-	.	.
8C/	-ſcia	.	.	.	.	8ee\	-ſcia
4C/	gl'an-	4r	.	.	.	4ee\	gl'an-
4D/	-tri	4A/	&	4f#X\	-tri	8dd\	.
.	.	.	.	.	.	8cc\	.
0E	fo-	4.e\	la-	2.g\	fo-	4b\	.
.	.	.	.	.	.	4cc\	-tri
.	.	8e\	-ſcia	.	.	.	.
.	.	4e\	gl'an-	.	.	4cc\	fo-
.	.	8d\	.	4f#\	.	8b\	.
.	.	8c\	.	.	.	8a\	.
=30-	=30-	=30-	=30-	=30-	=30-	=30-	=30-
.	.	4B\	.	1e	.	4g#X/	.
.	.	4A/	-tri	.	.	2a\	.
.	.	2B\	fo-	.	.	.	.
.	.	.	.	.	.	4g#X/	.
00AA	-ſchi.	00A	-ſchi.	00c#X	-ſchi.	00a	-ſchi
==	==	==	==	==	==	==	==
*-	*-	*-	*-	*-	*-	*-	*-
!!!system-decoration: [(s1,s2,s3,s4)]
!!!ENC: Berenika Jozajtis
!!!END: 2022-06-27
!!!ENC: Jan Barakat
!!!END: 2022-07-12
